material/.icons/material/newspaper-variant-outline.svg

<svg xmlns="http://www.w3.org/2000/svg" viewBox="0 0 24 24"><path d="M20 6v12H4V6h16m2-2H2v14s0 2 2 2h16s2 0 2-2V4m-12 9H6V8h4v5m8 0h-7v-2h7v2m0-3h-7V8h7v2z"/></svg>

<?xml version="1.0" encoding="UTF-8"?><!DOCTYPE svg PUBLIC "-//W3C//DTD SVG 1.1//EN" "http://www.w3.org/Graphics/SVG/1.1/DTD/svg11.dtd"><svg xmlns="http://www.w3.org/2000/svg" xmlns:xlink="http://www.w3.org/1999/xlink" version="1.1" id="mdi-newspaper-variant-outline" width="24" height="24" viewBox="0 0 24 24"><path d="M20 6V18H4V6H20M22 4H2V18C2 18 2 20 4 20H20C20 20 22 20 22 18V4M10 13H6V8H10V13M18 13H11V11H18V13M18 10H11V8H18V10Z" /></svg>
